X:1
T:Advent Hornpipe
M:2/4
L:1/8
R:Hornpipe
B:Elias Howe – Musician’s Omnibus Nos. 6 & 7 (Boston, 1880-1882, p. 627)
B:  http://ks4.imslp.net/files/imglnks/usimg/c/c7/IMSLP601433-PMLP562790-ONeill_Rare_Medium_M40_M8_v6.7_text.pdf
Z:AK/Fiddler’s Companion
K:Bmin
B/c/d/e/ fb|g/f/e/g/ fd|e/d/c/e/ dB|cf F2|
B/c/d/e/ fb|g/f/e/g/ fd|e/d/c/e/ d/c/B/d/|cc B2!fermata!:|
|:Ad d/e/d/c/|Be e/f/e/d/|(ca).a.a|b/a/b/a/ b/a/f/d/|
Ad d/e/d/c/|Be e/f/e/d/|(ca).a.a|1^g/a/b/c'/ d'/a/f/d/:|2 ^g/a/b/c'/ d'z!D.C.!||

